X: 36183
T: Scottiche A Deux
R: barndance
M: 4/4
K: Cmajor
V: 1
|:"G"A_B =BA _B=B AB|"Bb"cd cB "G"B2B2|"G"A_B =BA _B=B AB|"Bb"cd cB "G"B4:|
V: 2
|:de fd ef ef|ga gf f2f2|de fd ef ef|ga gf f4:|
V: 1
|:"G" d2 dd "Eb" _e2 ee|"F"A2A2 "G"B2 BB|1 "G"d2dd "Eb"_e2 ee|"F"A2A2"G"B4:|2 "D"c2cB AB cA|"G"Bc BA d^c =cB||
V: 2
|:g2 gg g2 gg|fg fe d2d2|1 g2 gg g2gg|fg fe d4:|2 ^f2 fg af ga|g2g2f4||

